assets/Oncoming police car/Flat/oncoming_police_car_flat.svg

<svg xmlns="http://www.w3.org/2000/svg" width="32" height="32" fill="none"><path fill="#321B41" d="M7 29h2c.56 0 1-.44 1-1v-3H6v3c0 .55.45 1 1 1Zm16 0h2c.56 0 1-.44 1-1v-3h-4v3c0 .55.45 1 1 1Z"/><path fill="#D3D3D3" d="M10.48 19H6.86a.86.86 0 0 1-.86-.86v-1.28c0-.47.38-.86.86-.86h1.28c1.29 0 2.34 1.05 2.34 2.34V19Zm11.04 0h3.61c.48 0 .87-.38.87-.86v-1.28a.86.86 0 0 0-.86-.86h-1.28c-1.29 0-2.34 1.05-2.34 2.34V19Z"/><path fill="#212121" d="M27 20.02c0-.62-.35-1.19-.91-1.46L25 18l-9-2-9 2-1.09.56c-.56.27-.91.84-.91 1.46v3.99c0 1.1.9 2 2 2h17.99c1.1 0 2-.9 2-2H27v-3.99Z"/><path fill="#FFF478" d="M7 20c.55 0 1 .45 1 1v1c0 .55-.45 1-1 1H5v-3h2Zm18 3c-.55 0-1-.45-1-1v-1c0-.55.45-1 1-1h2v3h-2Z"/><path fill="#F92F60" d="M11 22a1 1 0 1 1-2 0 1 1 0 0 1 2 0Zm12 0a1 1 0 1 1-2 0 1 1 0 0 1 2 0Z"/><path fill="#26C9FC" d="M21.07 10H10.93c-1.13 0-2.12.77-2.39 1.87L7.03 18h17.94l-1.51-6.13A2.463 2.463 0 0 0 21.07 10Z"/><path fill="#26C9FC" d="M21.07 11H10.93c-1.13 0-2.12-.23-2.39.87L7 18h18l-1.54-6.13c-.27-1.09-1.25-.87-2.39-.87Z"/><path fill="#212121" d="m8.54 11.88-.03.13h14.98l-.03-.13a2.46 2.46 0 0 0-2.39-1.87H10.93a2.45 2.45 0 0 0-2.39 1.87Z"/><path fill="#F92F60" d="M13 7c-.55 0-1 .45-1 1v1l4 .5V7h-3Z"/><path fill="#5092FF" d="M19 7c.55 0 1 .45 1 1v1l-4 .5V7h3Z"/><path fill="#D3D3D3" d="M17 9V7h-2v2h-3v1h8V9h-3ZM10.96 20h10.08c.59 0 1.13-.33 1.39-.86L23 18H9l.57 1.14c.26.53.8.86 1.39.86Zm7.71 1H19c.56 0 1 .45.99 1 0 .55-.45 1-1 1H13c-.55 0-1-.45-1-1s.45-1 1-1h5.67Z"/></svg>

<svg width="32" height="32" viewBox="0 0 32 32" fill="none" xmlns="http://www.w3.org/2000/svg">
<path d="M7 29H9C9.56 29 10 28.56 10 28V25H6V28C6 28.55 6.45 29 7 29ZM23 29H25C25.56 29 26 28.56 26 28V25H22V28C22 28.55 22.45 29 23 29Z" fill="#321B41"/>
<path d="M10.48 19H6.85999C6.38999 19 6 18.62 6 18.14V16.86C6 16.39 6.37999 16 6.85999 16H8.14C9.43 16 10.48 17.05 10.48 18.34V19ZM21.52 19H25.13C25.61 19 26 18.62 26 18.14V16.86C26 16.39 25.62 16 25.14 16H23.86C22.57 16 21.52 17.05 21.52 18.34V19Z" fill="#D3D3D3"/>
<path d="M27 20.02C27 19.4 26.65 18.83 26.09 18.56L25 18L16 16L7 18L5.91 18.56C5.35 18.83 5 19.4 5 20.02V24.01C5 25.11 5.9 26.01 7 26.01H24.99C26.09 26.01 26.99 25.11 26.99 24.01H27V20.02Z" fill="#212121"/>
<path d="M7 20C7.55 20 8 20.45 8 21V22C8 22.55 7.55 23 7 23H5V20H7ZM25 23C24.45 23 24 22.55 24 22V21C24 20.45 24.45 20 25 20H27V23H25Z" fill="#FFF478"/>
<path d="M11 22C11 22.5523 10.5523 23 10 23C9.44772 23 9 22.5523 9 22C9 21.4477 9.44772 21 10 21C10.5523 21 11 21.4477 11 22ZM23 22C23 22.5523 22.5523 23 22 23C21.4477 23 21 22.5523 21 22C21 21.4477 21.4477 21 22 21C22.5523 21 23 21.4477 23 22Z" fill="#F92F60"/>
<path d="M21.07 10H10.93C9.80003 10 8.81002 10.77 8.54002 11.87L7.03003 18H24.97L23.46 11.87C23.19 10.78 22.21 10 21.07 10Z" fill="#26C9FC"/>
<path d="M21.07 11H10.93C9.8 11 8.80999 10.77 8.53999 11.87L7 18H25L23.46 11.87C23.19 10.78 22.21 11 21.07 11Z" fill="#26C9FC"/>
<path d="M8.54001 11.88L8.51001 12.01H23.49L23.46 11.88C23.19 10.78 22.2 10.01 21.07 10.01H10.93C9.80002 9.99998 8.81001 10.78 8.54001 11.88Z" fill="#212121"/>
<path d="M13 7C12.45 7 12 7.45 12 8V9L16 9.5V7H13Z" fill="#F92F60"/>
<path d="M19 7C19.55 7 20 7.45 20 8V9L16 9.5V8.04292V8V7H19Z" fill="#5092FF"/>
<path d="M17 9V7H15V9H12V10H20V9H17Z" fill="#D3D3D3"/>
<path d="M10.96 20H21.04C21.63 20 22.17 19.67 22.43 19.14L23 18H9L9.57 19.14C9.83 19.67 10.37 20 10.96 20ZM18.67 21H19C19.56 21 20 21.45 19.99 22C19.99 22.55 19.54 23 18.99 23H18.66H18.14H13C12.45 23 12 22.55 12 22C12 21.45 12.45 21 13 21H18.24H18.67Z" fill="#D3D3D3"/>
</svg>
